styles/1/Numix/48/places/purple-folder-system.svg

<?xml version="1.0" encoding="UTF-8" standalone="no"?>
<!-- Created with Inkscape (http://www.inkscape.org/) -->

<svg
   xmlns:dc="http://purl.org/dc/elements/1.1/"
   xmlns:cc="http://creativecommons.org/ns#"
   xmlns:rdf="http://www.w3.org/1999/02/22-rdf-syntax-ns#"
   xmlns:svg="http://www.w3.org/2000/svg"
   xmlns="http://www.w3.org/2000/svg"
   xmlns:sodipodi="http://sodipodi.sourceforge.net/DTD/sodipodi-0.dtd"
   xmlns:inkscape="http://www.inkscape.org/namespaces/inkscape"
   width="48"
   height="48"
   id="svg2"
   version="1.1"
   inkscape:version="0.91 r"
   sodipodi:docname="purple-folder-system.svg">
  <defs
     id="defs4" />
  <sodipodi:namedview
     id="base"
     pagecolor="#ffffff"
     bordercolor="#666666"
     borderopacity="1.0"
     inkscape:pageopacity="0.0"
     inkscape:pageshadow="2"
     inkscape:zoom="17.627784"
     inkscape:cx="32.0493"
     inkscape:cy="13.182654"
     inkscape:document-units="px"
     inkscape:current-layer="layer1"
     showgrid="true"
     inkscape:window-width="1280"
     inkscape:window-height="998"
     inkscape:window-x="0"
     inkscape:window-y="0"
     inkscape:window-maximized="1">
    <inkscape:grid
       type="xygrid"
       id="grid2990"
       empspacing="5"
       visible="true"
       enabled="true"
       snapvisiblegridlinesonly="true" />
  </sodipodi:namedview>
  <metadata
     id="metadata7">
    <rdf:RDF>
      <cc:Work
         rdf:about="">
        <dc:format>image/svg+xml</dc:format>
        <dc:type
           rdf:resource="http://purl.org/dc/dcmitype/StillImage" />
        <dc:title />
      </cc:Work>
    </rdf:RDF>
  </metadata>
  <g
     inkscape:label="Body"
     inkscape:groupmode="layer"
     id="layer1"
     transform="translate(0,-1004.3622)">
    <path
       style="font-size:medium;font-style:normal;font-variant:normal;font-weight:normal;font-stretch:normal;text-indent:0;text-align:start;text-decoration:none;line-height:normal;letter-spacing:normal;word-spacing:normal;text-transform:none;direction:ltr;block-progression:tb;writing-mode:lr-tb;text-anchor:start;baseline-shift:baseline;color:#000000;fill:#7e57c2;fill-opacity:1;fill-rule:nonzero;stroke:none;stroke-width:3.00000024;marker:none;visibility:visible;display:inline;overflow:visible;enable-background:accumulate;font-family:Sans;-inkscape-font-specification:Sans"
       d="M 5.1875 8 C 4.5111319 8.1439 3.9849192 8.8086 4 9.5 L 4 37.5 C 4.0000786 38.2853 4.7146233 38.9999 5.5 39 L 42.5 39 C 43.285377 38.9999 43.999921 38.2853 44 37.5 L 44 12.53125 C 43.999921 11.74585 43.285377 11.03135 42.5 11.03125 L 28 11.03125 L 28 9.5 C 27.999921 8.7146 27.285377 8 26.5 8 L 5.5 8 C 5.3962117 7.989 5.2912883 7.989 5.1875 8 z M 22.75 17 L 25.28125 17 C 25.724973 17 26.0625 17.33745 26.0625 17.78125 L 26.0625 18.84375 C 26.348289 18.93975 26.639627 19.02305 26.90625 19.15625 L 27.625 18.4375 C 27.938717 18.1238 28.436257 18.1238 28.75 18.4375 L 30.5625 20.25 C 30.876242 20.5638 30.876242 21.0612 30.5625 21.375 L 29.84375 22.125 C 29.973581 22.3871 30.0621 22.657 30.15625 22.9375 L 31.21875 22.9375 C 31.66247 22.9375 32.000001 23.27505 32 23.71875 L 32 26.28125 C 32 26.72495 31.662448 27.0625 31.21875 27.0625 L 30.15625 27.0625 C 30.062098 27.343 29.973579 27.6129 29.84375 27.875 L 30.5625 28.625 C 30.876235 28.9386 30.876242 29.4362 30.5625 29.75 L 28.75 31.5625 C 28.436283 31.8762 27.938741 31.8762 27.625 31.5625 L 26.90625 30.84375 C 26.639656 30.97655 26.34832 31.06025 26.0625 31.15625 L 26.0625 32.21875 C 26.0625 32.66255 25.724948 33 25.28125 33 L 22.75 33 C 22.306309 33 21.9375 32.66255 21.9375 32.21875 L 21.9375 31.15625 C 21.656969 31.06195 21.387073 30.97375 21.125 30.84375 L 20.375 31.5625 C 20.061282 31.8762 19.563742 31.8762 19.25 31.5625 L 17.4375 29.75 C 17.123757 29.4362 17.123757 28.9388 17.4375 28.625 L 18.15625 27.90625 C 18.023314 27.63965 17.93966 27.3482 17.84375 27.0625 L 16.8125 27.0625 C 16.3688 27.0625 16 26.72495 16 26.28125 L 16 23.71875 C 16 23.27505 16.3688 22.9375 16.8125 22.9375 L 17.84375 22.9375 C 17.939672 22.6518 18.023308 22.36035 18.15625 22.09375 L 17.4375 21.375 C 17.123757 21.0614 17.123757 20.5638 17.4375 20.25 L 19.25 18.4375 C 19.563718 18.1238 20.061258 18.1238 20.375 18.4375 L 21.125 19.15625 C 21.387073 19.02665 21.656969 18.93875 21.9375 18.84375 L 21.9375 17.78125 C 21.9375 17.33745 22.306303 17 22.75 17 z M 24 22.9375 C 22.85511 22.9375 21.9375 23.855 21.9375 25 C 21.9375 26.1448 22.85511 27.0625 24 27.0625 C 25.144889 27.0625 26.0625 26.1448 26.0625 25 C 26.0625 23.855 25.144889 22.9375 24 22.9375 z "
       transform="translate(0,1004.3622)"
       id="path3912" />
  </g>
</svg>

<!-- Created with Inkscape (http://www.inkscape.org/) -->
<svg xmlns="http://www.w3.org/2000/svg" viewBox="0 0 48 48">
 <g transform="translate(0,-1004.3622)">
  <path d="m 5.188 8 c -0.676 0.144 -1.203 0.809 -1.188 1.5 l 0 28 c 0 0.785 0.715 1.5 1.5 1.5 l 37 0 c 0.785 0 1.5 -0.715 1.5 -1.5 l 0 -24.969 c 0 -0.785 -0.715 -1.5 -1.5 -1.5 l -14.5 0 l 0 -1.531 c 0 -0.785 -0.715 -1.5 -1.5 -1.5 l -21 0 c -0.104 -0.011 -0.209 -0.011 -0.313 0 z m 17.563 9 l 2.531 0 c 0.444 0 0.781 0.337 0.781 0.781 l 0 1.063 c 0.286 0.096 0.577 0.179 0.844 0.313 l 0.719 -0.719 c 0.314 -0.314 0.811 -0.314 1.125 0 l 1.813 1.813 c 0.314 0.314 0.314 0.811 0 1.125 l -0.719 0.75 c 0.13 0.262 0.218 0.532 0.313 0.813 l 1.063 0 c 0.444 0 0.781 0.338 0.781 0.781 l 0 2.563 c 0 0.444 -0.338 0.781 -0.781 0.781 l -1.063 0 c -0.094 0.281 -0.183 0.55 -0.313 0.813 l 0.719 0.75 c 0.314 0.314 0.314 0.811 0 1.125 l -1.813 1.813 c -0.314 0.314 -0.811 0.314 -1.125 0 l -0.719 -0.719 c -0.267 0.133 -0.558 0.216 -0.844 0.313 l 0 1.063 c 0 0.444 -0.338 0.781 -0.781 0.781 l -2.531 0 c -0.444 0 -0.813 -0.337 -0.813 -0.781 l 0 -1.063 c -0.281 -0.094 -0.55 -0.183 -0.813 -0.313 l -0.75 0.719 c -0.314 0.314 -0.811 0.314 -1.125 0 l -1.813 -1.813 c -0.314 -0.314 -0.314 -0.811 0 -1.125 l 0.719 -0.719 c -0.133 -0.267 -0.217 -0.558 -0.313 -0.844 l -1.031 0 c -0.444 0 -0.813 -0.338 -0.813 -0.781 l 0 -2.563 c 0 -0.444 0.369 -0.781 0.813 -0.781 l 1.031 0 c 0.096 -0.286 0.18 -0.577 0.313 -0.844 l -0.719 -0.719 c -0.314 -0.314 -0.314 -0.811 0 -1.125 l 1.813 -1.813 c 0.314 -0.314 0.811 -0.314 1.125 0 l 0.75 0.719 c 0.262 -0.13 0.532 -0.218 0.813 -0.313 l 0 -1.063 c 0 -0.444 0.369 -0.781 0.813 -0.781 z m 1.25 5.938 c -1.145 0 -2.063 0.918 -2.063 2.063 c 0 1.145 0.918 2.063 2.063 2.063 c 1.145 0 2.063 -0.918 2.063 -2.063 c 0 -1.145 -0.918 -2.063 -2.063 -2.063 z" transform="translate(0,1004.3622)" style="visibility:visible;fill:#7e57c2;fill-opacity:1;stroke:none;display:inline;color:#000;fill-rule:nonzero"/>
 </g>
</svg>
